X:1
T:Dudacka Polka
C:traditionell
R:polka
A:Tschechische Republik
Z:abc transcription Simon Wascher
M:2/4
L:1/8
K:G
BB/A/ BB/A/ | B/A/B/c/ dd | ee/d/ cc | dd/c/ BB |
BB/A/ BB/A/ | B/A/B/c/ dd | ee/d/ cc | Bd B2 :|
|:\
AA/B/ c/B/c/A/ | BB/c/ d/c/d/B/ | e/d/c/B/ cc | d/c/B/A/ BB |
AA/B/ c/B/c/A/ | BB/c/ d/c/d/B/ | e/d/c/B/ cA | d/c/B/A/ G2 :|
%%wordsfont Times-Italic 11pt
W:aus Simon Waschers TradArchiv
